source/images/icons/icon-editorial/prix.svg

<?xml version="1.0" encoding="UTF-8"?>
<svg width="80px" height="80px" viewBox="0 0 80 80" version="1.1" xmlns="http://www.w3.org/2000/svg" xmlns:xlink="http://www.w3.org/1999/xlink">
    <!-- Generator: Sketch 55.2 (78181) - https://sketchapp.com -->
    <title>Illustrative Icons/Prix</title>
    <desc>Created with Sketch.</desc>
    <g id="Illustrative-Icons/Prix" stroke="none" stroke-width="1" fill="none" fill-rule="evenodd">
        <path d="M40.3333333,70.3333333 C56.9018759,70.3333333 70.3333333,56.9018759 70.3333333,40.3333333 C70.3333333,23.7647909 56.9018759,10.3333333 40.3333333,10.3333333 C23.7647909,10.3333333 10.3333333,23.7647909 10.3333333,40.3333333 C10.3333333,56.9018759 23.7647909,70.3333333 40.3333333,70.3333333 Z M40.3333334,73.6666667 C21.9238417,73.6666667 7,58.7428251 7,40.3333334 C7,21.9238417 21.9238417,7 40.3333334,7 C58.7428251,7 73.6666667,21.9238417 73.6666667,40.3333334 C73.6666667,58.7428251 58.7428251,73.6666667 40.3333334,73.6666667 Z M38.6666667,55.8377617 C37.1335577,55.7149931 35.6563432,55.4357402 34.235,55.0000001 C32.2561012,54.3933304 30.6744504,53.5555609 29.49,52.4866667 C28.9411084,52.0244422 28.6666667,51.4322259 28.6666667,50.7100001 C28.6666667,50.1899974 28.8111097,49.7494462 29.1,49.3883334 C29.3888904,49.0272204 29.7355535,48.8466667 30.14,48.8466667 C30.5444465,48.8466667 31.0355527,49.0344426 31.6133334,49.4100001 C33.7216474,50.9734689 36.0727422,51.8959082 38.6666667,52.1773337 L38.6666667,42.180364 C36.9737095,41.7577725 35.5326074,41.2932094 34.3433334,40.7866667 C32.7833255,40.1222189 31.5627822,39.2194502 30.6816667,38.0783334 C29.8005512,36.9372165 29.36,35.4855644 29.36,33.7233334 C29.36,31.9611024 29.843884,30.3938959 30.8116667,29.0216667 C31.7794494,27.6494375 33.1299914,26.5805594 34.8633334,25.815 C36.0214912,25.3034804 37.289263,24.9628529 38.6666667,24.7931142 L38.6666667,20.3333334 C38.6666667,19.4128588 39.4128589,18.6666667 40.3333334,18.6666667 C41.2538079,18.6666667 42,19.4128588 42,20.3333334 L42,24.7006619 C43.5944082,24.792429 45.0866205,25.0699847 46.4766667,25.5333334 C48.2100087,26.111114 49.6833274,26.9633277 50.8966667,28.09 C51.4744474,28.5811135 51.7633334,29.1733299 51.7633334,29.8666667 C51.7633334,30.3577802 51.6116682,30.7911092 51.3083334,31.1666667 C51.0049986,31.5422242 50.6511132,31.73 50.2466667,31.73 C49.8711092,31.73 49.3944474,31.5422242 48.8166667,31.1666667 C47.4877712,30.1555505 46.2383392,29.4261134 45.0683334,28.9783334 C44.1822477,28.6392142 43.159476,28.4285102 42,28.3462185 L42,38.8377834 C43.959193,39.3209804 45.5886259,39.818938 46.8883334,40.3316667 C48.4627857,40.9527809 49.7194399,41.8049945 50.6583334,42.8883334 C51.5972271,43.9716722 52.0666667,45.365547 52.0666667,47.0700001 C52.0666667,48.8033421 51.5827827,50.3416601 50.6150001,51.6850001 C49.6472174,53.0283401 48.2894532,54.0683297 46.5416667,54.8050001 C45.1880522,55.3755317 43.6741727,55.7251294 42,55.8537977 L42,60.1666667 C42,61.0871412 41.2538079,61.8333334 40.3333334,61.8333334 C39.4128589,61.8333334 38.6666667,61.0871412 38.6666667,60.1666667 L38.6666667,55.8377617 Z M42,52.1932502 C43.5529482,52.0338362 44.7996072,51.6260881 45.74,50.9700001 C46.9822285,50.1033291 47.6033334,48.8611192 47.6033334,47.2433334 C47.6033334,45.9722159 47.0255614,45.018892 45.87,44.3833334 C44.9858677,43.8970605 43.6958759,43.4277045 42,42.9752572 L42,52.1932502 Z M38.6666667,28.4775392 C37.4538209,28.6855905 36.4460479,29.0836317 35.6433334,29.6716667 C34.4011049,30.5816712 33.78,31.8455475 33.78,33.4633334 C33.78,34.850007 34.3288834,35.8972187 35.4266667,36.605 C36.187508,37.0955425 37.2675022,37.5548577 38.6666667,37.9829519 L38.6666667,28.4775392 Z" id="Shape-color" fill="#ADB5BD"></path>
    </g>
</svg>

<svg width="80" height="80">
    <title>
        Illustrative Icons/Prix
    </title>
    <path d="M40.333 70.333c16.569 0 30-13.431 30-30 0-16.568-13.431-30-30-30-16.568 0-30 13.432-30 30 0 16.569 13.432 30 30 30zm0 3.334C21.923 73.667 7 58.743 7 40.333 7 21.923 21.924 7 40.333 7c18.41 0 33.334 14.924 33.334 33.333 0 18.41-14.924 33.334-33.334 33.334zm-1.666-17.83A20.714 20.714 0 0 1 34.235 55c-1.979-.607-3.56-1.444-4.745-2.513-.549-.463-.823-1.055-.823-1.777 0-.52.144-.96.433-1.322.289-.36.636-.541 1.04-.541s.896.187 1.473.563a14.216 14.216 0 0 0 7.054 2.767V42.18c-1.693-.422-3.134-.887-4.324-1.393-1.56-.665-2.78-1.568-3.661-2.709-.881-1.14-1.322-2.592-1.322-4.355 0-1.762.484-3.33 1.452-4.701.967-1.373 2.318-2.441 4.051-3.207 1.158-.512 2.426-.852 3.804-1.022v-4.46a1.667 1.667 0 0 1 3.333 0v4.368c1.594.091 3.087.369 4.477.832 1.733.578 3.206 1.43 4.42 2.557.577.491.866 1.083.866 1.777 0 .49-.151.924-.455 1.3-.303.375-.657.563-1.061.563-.376 0-.853-.188-1.43-.563-1.33-1.011-2.579-1.74-3.749-2.189-.886-.339-1.909-.55-3.068-.632v10.492c1.96.483 3.589.98 4.888 1.494 1.575.62 2.831 1.473 3.77 2.556.94 1.084 1.409 2.478 1.409 4.182 0 1.733-.484 3.272-1.452 4.615-.968 1.343-2.326 2.383-4.073 3.12-1.354.57-2.868.92-4.542 1.049v4.313a1.667 1.667 0 0 1-3.333 0v-4.33zM42 52.194c1.553-.16 2.8-.567 3.74-1.223 1.242-.867 1.863-2.109 1.863-3.727 0-1.27-.577-2.224-1.733-2.86-.884-.486-2.174-.955-3.87-1.408v9.218zm-3.333-23.715c-1.213.208-2.221.606-3.024 1.194-1.242.91-1.863 2.174-1.863 3.791 0 1.387.549 2.434 1.647 3.142.76.49 1.84.95 3.24 1.378v-9.505z" fill="#ADB5BD" fill-rule="evenodd"/>
</svg>
